webapp/src/assets/icons/cloudproviders/aws/security_identify_compliance/access_analyzer.svg

<svg width="48" height="48" xmlns="http://www.w3.org/2000/svg"><path d="M15 25.001h4v-2h-4v2Zm-11 2h7v-7H4v7Zm8 2H3a1 1 0 0 1-1-1v-9a1 1 0 0 1 1-1h9a1 1 0 0 1 1 1v9a1 1 0 0 1-1 1Zm31.2-2-3.2-5.11-3.2 5.11h6.4Zm2.67 1.48a1.002 1.002 0 0 1-.87.52H35a1 1 0 0 1-.851-1.53l5-8a1 1 0 0 1 1.702 0l5 8c.187.308.195.694.019 1.01ZM43 41.001a3 3 0 1 0-6 0 3 3 0 0 0 6 0Zm2 0a5 5 0 0 1-9.899 1H7a1 1 0 0 1-1-1v-10h2v9h27.101a4.998 4.998 0 0 1 5.894-3.905A4.999 4.999 0 0 1 45 41.001Zm-23-16h4v-2h-4v2Zm15-18a3 3 0 1 0 6 0 3 3 0 0 0-6 0Zm-29 9H6v-9a1 1 0 0 1 1-1h28.101a4.999 4.999 0 1 1 9.796 2 5 5 0 0 1-9.796 0H8v8Zm21 9h4v-2h-4v2Z" fill="#DD344C" fill-rule="evenodd"/></svg>

<?xml version="1.0" encoding="UTF-8"?>
<svg width="48px" height="48px" viewBox="0 0 48 48" version="1.1" xmlns="http://www.w3.org/2000/svg" xmlns:xlink="http://www.w3.org/1999/xlink">
    <title>Icon-Resource/Security-Identity-and-Compliance/Res_AWS-Identity-Access-Management_IAM-Access-Analyzer_48</title>
    <g id="Icon-Resource/Security-Identity-and-Compliance/Res_AWS-Identity-Access-Management_IAM-Access-Analyzer_48" stroke="none" stroke-width="1" fill="none" fill-rule="evenodd">
        <path d="M15,25.001 L19,25.001 L19,23.001 L15,23.001 L15,25.001 Z M4,27.001 L11,27.001 L11,20.001 L4,20.001 L4,27.001 Z M12,29.001 L3,29.001 C2.448,29.001 2,28.553 2,28.001 L2,19.001 C2,18.448 2.448,18.001 3,18.001 L12,18.001 C12.552,18.001 13,18.448 13,19.001 L13,28.001 C13,28.553 12.552,29.001 12,29.001 L12,29.001 Z M43.2,27.001 L40,21.891 L36.8,27.001 L43.2,27.001 Z M45.87,28.481 C45.696,28.799 45.362,28.998 45,29.0010017 L35,29.0010017 C34.448,29.002 33.999,28.555 33.9979861,28.003 C33.997,27.815 34.05,27.631 34.149,27.471 L39.149,19.471 C39.44,19.001 40.058,18.857 40.526,19.148 C40.658,19.229 40.769,19.34 40.851,19.471 L45.851,27.471 C46.038,27.779 46.046,28.165 45.87,28.481 L45.87,28.481 Z M43,41.001 C43,39.344 41.657,38.001 40,38.001 C38.343,38.001 37,39.344 37,41.001 C37,42.658 38.343,44.001 40,44.001 C41.657,44.001 43,42.658 43,41.001 L43,41.001 Z M45,41.001 C45.003,43.762 42.767,46.003 40.005,46.0060018 C37.625,46.008 35.573,44.333 35.101,42.001 L7,42.001 C6.448,42.001 6,41.553 6,41.001 L6,31.001 L8,31.001 L8,40.001 L35.101,40.001 C35.649,37.295 38.288,35.546 40.995,36.096 C43.327,36.569 45.003,38.621 45,41.001 L45,41.001 Z M22,25.001 L26,25.001 L26,23.001 L22,23.001 L22,25.001 Z M37,7.001 C37,8.658 38.343,10.001 40,10.001 C41.657,10.001 43,8.658 43,7.001 C43,5.344 41.657,4.001 40,4.001 C38.343,4.001 37,5.344 37,7.001 L37,7.001 Z M8,16.001 L6,16.001 L6,7.001 C6,6.448 6.448,6.001 7,6.001 L35.101,6.001 C35.652,3.295 38.294,1.55 40.999,2.102 C43.704,2.654 45.45,5.295 44.897,8.001 C44.346,10.706 41.704,12.452 38.999,11.9 C37.035,11.499 35.501,9.965 35.101,8.001 L8,8.001 L8,16.001 Z M29,25.001 L33,25.001 L33,23.001 L29,23.001 L29,25.001 Z" id="AWS-Identity-and-Access-Management_AWS-IAM-Access-Analyzer_Resource-Icon_light-bg" fill="#DD344C"></path>
    </g>
</svg>
